components/2.0/icon/icons/icon-add-row-22px.svg

<svg width="22" height="22" viewBox="0 0 22 22" xmlns="http://www.w3.org/2000/svg"><g fill="#3D4752" fill-rule="evenodd"><path d="M20 6H9v12h11V6zm-1 1v10h-4V7h4zm-5 0v10h-4V7h4zM2 2h6v12H2z"/></g></svg>

<?xml version="1.0" encoding="UTF-8" standalone="no"?>
<svg width="22px" height="22px" viewBox="0 0 22 22" version="1.1" xmlns="http://www.w3.org/2000/svg" xmlns:xlink="http://www.w3.org/1999/xlink" xmlns:sketch="http://www.bohemiancoding.com/sketch/ns">
    <!-- Generator: Sketch 3.4.4 (17249) - http://www.bohemiancoding.com/sketch -->
    <title>icon-add-row-22px</title>
    <desc>Created with Sketch.</desc>
    <defs></defs>
    <g id="22px" stroke="none" stroke-width="1" fill="none" fill-rule="evenodd" sketch:type="MSPage">
        <g id="icon-add-row-22px" sketch:type="MSArtboardGroup" fill="#3D4752">
            <path d="M20,6 L9,6 L9,18 L20,18 L20,6 L20,6 L20,6 Z M19,7 L19,17 L15,17 L15,7 L19,7 L19,7 Z M14,7 L14,17 L10,17 L10,7 L14,7 L14,7 Z" id="Shape" sketch:type="MSShapeGroup"></path>
            <rect id="Rectangle-path" sketch:type="MSShapeGroup" x="2" y="2" width="6" height="12"></rect>
        </g>
    </g>
</svg>
